X: 4
I: linebreak $
T: Belreguardo
N: 
N: Drone: E /B 
K: Bb major
M: 6/8
L: 1/8
P: A
"^Saltarello"e2e dc2 | B2B cd2 | e2b gf2 | e3 e3 :| e2e dc2 | B2B cd2 | 
g2f ed2 | c3 c2c/d/ || 
M: 6/4
P: B
"^Bassadanza"E6 E6 | E6 E6 | F6 F6 | F6 F6 | G4EF G4EF | G4EF G2G4 | 
F6 F6 | F4DE F4DE | F4DE F2F4 | E6 E6 | E6 E6 |: 
P: C
G3ABc B2A4 | 
G3ABc B2A4 | G6 G6 | G6 G6 :| 
P: D
F6 F6 | F4A2 G2F4 | E6 E6 | 
E6 E6 | E6 E6 |] 

